packages/kaspersky-hexa-ui-icons/src/iconsSVGs/16/Perpetuity.svg

<svg width="16" height="16" viewBox="0 0 16 16" fill="none" xmlns="http://www.w3.org/2000/svg">
<path d="M10.1635 6.63233C10.506 6.26496 10.9857 6.05635 11.488 6.05635C12.4954 6.05635 13.3091 6.87853 13.2987 7.88589L13.2965 8.09872C13.2871 9.01213 12.5924 9.77239 11.6835 9.8639L11.5442 9.87792C11.1234 9.92029 10.7045 9.78068 10.3932 9.49429C10.129 9.25124 9.71781 9.26837 9.47475 9.53256C9.2317 9.79675 9.24883 10.208 9.51302 10.451C10.0976 10.9888 10.8842 11.2509 11.6745 11.1714L11.8137 11.1574C13.3817 10.9995 14.5802 9.68793 14.5965 8.11214L14.5987 7.89931C14.6165 6.16877 13.2186 4.75635 11.488 4.75635C10.6251 4.75635 9.80105 5.11472 9.21265 5.74582L7.18199 7.92384C7.1779 7.92823 7.17389 7.93265 7.16995 7.93711L5.83622 9.36763C5.49371 9.73499 5.014 9.9436 4.51173 9.9436C3.50432 9.9436 2.69058 9.12142 2.70098 8.11406L2.70318 7.90123C2.7126 6.98782 3.40733 6.22756 4.3162 6.13605L4.45547 6.12203C4.87633 6.07966 5.29523 6.21927 5.60652 6.50566C5.87071 6.74871 6.28191 6.73158 6.52496 6.46739C6.76801 6.2032 6.75088 5.792 6.48669 5.54895C5.90215 5.01117 5.11555 4.749 4.32525 4.82857L4.18597 4.84259C2.61802 5.00045 1.41951 6.31202 1.40324 7.88781L1.40105 8.10065C1.38319 9.83118 2.78111 11.2436 4.51173 11.2436C5.37458 11.2436 6.19867 10.8852 6.78707 10.2541L8.81773 8.07611C8.82181 8.07173 8.82582 8.0673 8.82977 8.06284L10.1635 6.63233Z" fill="black"/>
</svg>

<svg xmlns="http://www.w3.org/2000/svg" width="16" height="16" fill="none" viewBox="0 0 16 16"><path fill="#000" d="M10.1636 6.6324a1.81 1.81 0 0 1 1.3245-.576c1.0074 0 1.8212.8222 1.8108 1.8295l-.0022.2129c-.0095.9134-.7042 1.6736-1.6131 1.7651l-.1392.014a1.48 1.48 0 0 1-1.1511-.3836.65.65 0 1 0-.8802.9567 2.78 2.78 0 0 0 2.1615.7204l.1393-.014c1.5679-.1579 2.7664-1.4694 2.7827-3.0452l.0022-.2129c.0178-1.7305-1.3801-3.143-3.1107-3.143a3.11 3.11 0 0 0-2.2753.9895L7.182 7.9239l-.012.0133-1.3337 1.4306a1.81 1.81 0 0 1-1.3245.576c-1.0075 0-1.8212-.8223-1.8108-1.8296l.0022-.2128c.0094-.9135.7041-1.6737 1.613-1.7652l.1393-.014a1.48 1.48 0 0 1 1.151.3836.65.65 0 0 0 .8802-.9567 2.78 2.78 0 0 0-2.1614-.7204l-.1393.014c-1.568.1579-2.7665 1.4695-2.7827 3.0452l-.0022.2129c-.0179 1.7305 1.38 3.1429 3.1107 3.1429a3.11 3.11 0 0 0 2.2753-.9894l2.0306-2.178.012-.0133z"/></svg>
